X:1
T:XX. Welcome black night
T:XX. Welcome black night
T:CANTUS Secundus.
T:John Dowland
C:John Dowland
L:1/8
M:4/4
K:F
V:1 treble 
V:1
 z4 G3 A/G/ G8 | z4 B>c d4 ^FF F2 FF | G4 GA/B/ c/B/A/>G/ A8 | z4 A8 z2 c4 z G G2 G2 | %4
w: Wel- * * come,|wel- * * come black night Hy- mens|faire * * * * * * * day,|help, help, help Hy- men|
w: Stay (hap- py paire)|stay * * but a while, Hy- men|comes * * * not Love to be- guile,|these sports, sports, sports are|
 B3 c d D2 F E2 D2 E4 | D8 z4"^(1)" B6 AG A6 GF G3 G | F8 z4 z2 D2 | D3 D B2 G2 z2 G2 c2 G2 | %8
w: Loves * * due debt * to *|pay, Loves due * debt is chaste * de-|light, which|if the tur- tles, the tur- tles,|
w: al- * * lur- * * ing *|baites, And sawce * are to Loves sweet- est|Cates: Long-|ing hope doth no hurt but this,|
 z2 D2 d6 cB c3 c | B8 z4"^(1)" B6 F2 G3 E F2 A4 ^G2 | A2"^(3)" G2 G2 c2 A4 z2 D2 | %11
w: the Tur- tles want * to|night, Hy- men for- fets his Di- e-|tie, and night in love, in|
w: It height- ens Loves at- tained|blisse. Then stay (most hap- pie) stay a|while, * * * * *|
 F2 G2 A3 A G8 |: z4 G4 z4 c6 B/>c/d A4 | z2 B3 A G2 A8 | z2 DE ^FG A2 F2 D2 z2 GABc d2 B2 G2 | %15
w: love her dig- ni- tie,|Help, help blacke * * night|Hy- mens faire day,|Help * * * * Hy- men Help * * * * Hy- men,|
w: |Hy- men comes not Love to|* be * guile.||
 z2 A4 d8- d4 z B A3 G G8 :|[M:3/2]"^Chorus" G4 A4 B4 B4 B4 | z2 G4 B2 A4 B4 | z2 F4 F2 F6 F2 | %19
w: Loves due * debt to * pay|Hy- men, O Hy- men,|myne of trea- sures|more di- vine, what|
w: ||||
 F3 F F4 D2 D4 D2 D4 G4 G3 G"^(1)" A6 G2 G8 ^F4 |"^(2)" G16 |] x12 |] %22
w: di- e- tie is like to thee, that fre- est from mor- ta- li-|tie.||
w: |||

